X:1
T:MENUETT No. 1 mit TRIO
T:MENUETT in F MAJOR
T:für das Pianoforte
T:W. A. Mozart
T:Köch. Verz. No. 1d
C:W. A. Mozart
Z:Köch. Verz. No. 1
%%score { ( 1 3 ) | 2 }
L:1/8
Q:1/4=90
M:3/4
K:F
V:1 alto1 nm="Piano" snm="Pno."
V:3 alto1 
V:2 bass 
V:1
 [Af]2 [ce]2 [Bd]2 | [Ac]2 [GB]2 [FA]2 | GFAG (B/A/)(f/4e/4d/4c/4) | c2 TB2 A2 | fe d2 c2 | %5
 =B2 B2 cG | Afedc=B | c6 :: B2 g2 G2 | A2 f2 F2 | d2 (3dcB (3AGF | F4 E2 | B2 z2 z2 | %13
 [FA]2 [Ac][FA][Ac][FA] | B2 z2 z2 | [FA]2 [Ac][FA][Ac][FA] | GBAGFE | F2 AFAF | GBAGFE |{/E} F6 :| %20
V:2
 [F,,F,]6 | [F,,F,]6 | A,2 B,2 C2 | D2[K:treble] E2 F2 | F4 ^F2 | G2 [=FG]2 E2 | %6
 F2 G2[K:bass] G,2 | C2 G,2 C,2 :: [C,,C,]6 | [C,,C,]6 | B,,2 B,2 =B,2 | C2 G,2 C,2 | %12
[K:treble] z2 (3GEC (3GEC |[K:bass] F,2 z2 z2 |[K:treble] z2 (3GEC (3GEC |[K:bass] F,2 z2 z2 | %16
 B,2 C2 C,2 | D,2 D,2 D,2 | B,,2 C,2 C,,2 | F,,2 C,2 F,2 :| %20
V:3
 x6 | x6 | x6 | x6 | A2 x4 | x6 | x6 | x6 :: x6 | x6 | x6 | x6 | x6 | x6 | x6 | x6 | x6 | x6 | x6 | %19
 x6 :| %20

